src/assets/icons/filters/categories/car_stroke.svg

<svg width="48" height="44" viewBox="0 0 48 44" fill="none" xmlns="http://www.w3.org/2000/svg">
<path fill-rule="evenodd" clip-rule="evenodd" d="M43.4849 40.3649H40.4841C40.0909 40.3653 39.7137 40.2096 39.4353 39.932C39.1569 39.6545 39 39.2777 38.9992 38.8846V37.3749C38.9955 37.2009 38.9609 37.029 38.897 36.8671C40.582 36.7373 42.2632 36.5612 43.9385 36.3391C44.3101 36.288 44.6616 36.1796 44.9992 36.048V38.8846C44.9992 39.6882 44.307 40.3649 43.4849 40.3649V40.3649ZM4.46864 33.3754C4.06069 33.3176 3.68735 33.1143 3.41736 32.8031C3.14736 32.4918 2.99887 32.0935 2.99922 31.6815V27.3615C6.7169 27.8585 13.3301 28.4376 24 28.4376C34.6683 28.4376 41.2831 27.8586 44.9992 27.3631V31.6831C44.9992 32.5347 44.3674 33.2624 43.5329 33.3754C40.1636 33.8369 34.0397 34.385 24 34.385C13.9602 34.385 7.83793 33.8369 4.46864 33.3754V33.3754ZM8.99922 37.3749V38.8846C8.99922 39.6882 8.30709 40.3649 7.48489 40.3649H4.48567C4.29088 40.3653 4.09791 40.3273 3.91778 40.2531C3.73766 40.179 3.57391 40.07 3.43588 39.9326C3.29785 39.7951 3.18824 39.6318 3.11332 39.452C3.0384 39.2722 2.99963 39.0794 2.99922 38.8846V36.048C3.33987 36.1796 3.68825 36.288 4.05987 36.3391C5.73568 36.5614 7.41736 36.7369 9.10296 36.8655C9.03841 37.0278 9.00328 37.2003 8.99922 37.3749V37.3749ZM11.0276 6.15483C11.983 3.29806 14.945 2.98993 16.176 2.98993H31.8255C33.0534 2.98993 36.0154 3.29806 37.0064 6.24619L39.8245 13.1396C39.3228 12.9739 38.6678 12.7061 37.8766 12.3855C34.7287 11.1081 29.4596 8.9698 24 8.9698C18.5419 8.9698 13.2712 11.1066 10.1233 12.3855C9.30425 12.7184 8.62451 12.9956 8.11818 13.1597C8.1027 13.1659 8.08567 13.1675 8.07018 13.1721L11.0276 6.15483ZM39.1091 21.9716C41.0778 21.8329 43.0421 21.6362 44.9992 21.3817V24.3855C44.931 24.3855 44.866 24.3638 44.7979 24.3731C42.5837 24.6766 39.2516 25.0142 34.5166 25.2278C34.6993 22.337 38.9202 21.9855 39.1091 21.9716ZM16.4949 25.3409C16.4423 20.7112 11.6454 19.1597 9.1107 18.9909C7.13605 18.8518 5.1661 18.6525 3.20361 18.3933C3.13393 18.384 3.0689 18.4041 2.99922 18.4041V18.034C3.00086 17.6121 3.16961 17.2081 3.46852 16.9103C3.76744 16.6126 4.17215 16.4454 4.59406 16.4454H6.22606C7.1907 16.4454 8.13831 16.2968 9.04412 16.0057C9.60154 15.823 10.3541 15.521 11.2552 15.154C14.3907 13.8828 19.1272 11.9597 23.9984 11.9597C28.8712 11.9597 33.6108 13.8828 36.7447 15.154C37.6459 15.521 38.3984 15.823 38.9589 16.0057C39.8686 16.2982 40.8184 16.4465 41.7739 16.4454H43.4059C44.2854 16.4454 45.0007 17.1577 45.0007 18.034V18.4057C44.931 18.4057 44.866 18.3824 44.7963 18.3933C43.0931 18.6255 41.1065 18.8268 38.8985 18.9894C36.353 19.1597 31.5592 20.7097 31.5035 25.3409C29.2691 25.4075 26.7778 25.4477 24 25.4477C21.2222 25.4477 18.7324 25.4075 16.4949 25.3393V25.3409ZM2.99922 21.3817C4.96044 21.6366 6.92879 21.8333 8.90167 21.9716C8.94502 21.9762 13.2975 22.3091 13.4833 25.2278C8.74838 25.0142 5.41625 24.6766 3.20361 24.3731C3.13393 24.3638 3.0689 24.3871 2.99922 24.3871V21.3817V21.3817ZM47.5602 11.5215L45.2376 13.8395C46.0565 14.1938 46.754 14.7794 47.2447 15.5245C47.7355 16.2697 47.9979 17.1419 47.9999 18.034V31.6815C47.9999 31.9649 47.9721 32.2405 47.9225 32.5099C47.9566 32.6338 47.9999 32.7545 47.9999 32.8893V38.8846C47.9999 41.3496 45.9747 43.3548 43.4849 43.3548H40.4841C39.2971 43.3552 38.1584 42.8848 37.3178 42.0468C36.4772 41.2088 36.0032 40.0716 36 38.8846V37.3749C36 37.2634 36.0402 37.1643 36.0634 37.0591C32.8583 37.2449 28.8851 37.3749 24 37.3749C19.1164 37.3749 15.1401 37.2449 11.938 37.0591C11.9597 37.1643 12 37.2634 12 37.3749V38.8846C12 41.3496 9.9747 43.3548 7.48489 43.3548H4.48567C3.29843 43.3556 2.15934 42.8854 1.31838 42.0473C0.477423 41.2093 0.00328053 40.0718 0 38.8846V32.8893C0 32.7545 0.0433551 32.6338 0.0774196 32.5099C0.0272366 32.2366 0.00132891 31.9594 0 31.6815V18.034C0.00205004 17.1415 0.26469 16.2689 0.755674 15.5235C1.24666 14.7781 1.94462 14.1922 2.76387 13.8379L0.439742 11.5215C0.300743 11.3829 0.190463 11.2182 0.115218 11.0368C0.0399723 10.8555 0.00124039 10.6611 0.00124039 10.4648C0.00124039 10.2684 0.0399723 10.074 0.115218 9.89269C0.190463 9.71135 0.300743 9.54664 0.439742 9.40799C0.721296 9.12717 1.10273 8.96946 1.50039 8.96946C1.89805 8.96946 2.27948 9.12717 2.56103 9.40799L5.26606 12.1022L8.22347 5.10348C9.25625 1.99432 12.319 0 16.176 0H31.8255C35.681 0 38.7437 1.99587 39.8183 5.20877L42.6673 12.1703L45.4389 9.40799C45.7205 9.12717 46.1019 8.96946 46.4996 8.96946C46.8972 8.96946 47.2787 9.12717 47.5602 9.40799C47.6996 9.54643 47.8102 9.71108 47.8857 9.89245C47.9611 10.0738 48 10.2683 48 10.4648C48 10.6612 47.9611 10.8557 47.8857 11.0371C47.8102 11.2184 47.6996 11.3831 47.5602 11.5215V11.5215ZM28.4996 29.9009H28.4841C27.5272 29.9009 25.0358 29.9164 24 29.9164C22.9657 29.9164 20.4743 29.9009 19.5174 29.9009H19.5004C19.1133 29.9163 18.747 30.0805 18.4779 30.3591C18.2087 30.6378 18.0574 31.0095 18.0554 31.397C18.0534 31.7844 18.2009 32.1576 18.4672 32.4391C18.7334 32.7205 19.098 32.8884 19.4849 32.9078C22.4954 32.9282 25.5061 32.9261 28.5166 32.9016C28.9147 32.8996 29.2958 32.7395 29.5758 32.4565C29.8559 32.1735 30.0121 31.7909 30.01 31.3927C30.008 30.9946 29.8479 30.6136 29.5649 30.3335C29.2819 30.0535 28.8993 29.8973 28.5011 29.8993L28.4996 29.9009ZM27.0007 22.4253C27.0005 22.2284 26.9615 22.0335 26.8859 21.8517C26.8103 21.6699 26.6995 21.5048 26.56 21.3659C26.4205 21.2269 26.255 21.1169 26.0729 21.042C25.8908 20.9671 25.6957 20.9289 25.4988 20.9295H22.4996C22.303 20.9293 22.1082 20.9678 21.9265 21.0429C21.7447 21.118 21.5796 21.2281 21.4404 21.367C21.3012 21.5059 21.1908 21.6708 21.1153 21.8524C21.0399 22.034 21.001 22.2286 21.0008 22.4253C21.0008 23.2506 21.6728 23.9195 22.4996 23.9195H25.5004C25.697 23.9199 25.8918 23.8815 26.0736 23.8067C26.2554 23.7318 26.4207 23.6219 26.56 23.4831C26.6993 23.3444 26.81 23.1795 26.8856 22.998C26.9612 22.8165 27.0003 22.6219 27.0007 22.4253Z" fill="black"/>
</svg>

<svg width="48" height="44" viewBox="0 0 48 44" fill="none" xmlns="http://www.w3.org/2000/svg"><path fill-rule="evenodd" clip-rule="evenodd" d="M43.485 40.365h-3a1.483 1.483 0 01-1.486-1.48v-1.51a1.468 1.468 0 00-.102-.508 92.306 92.306 0 005.041-.528c.372-.051.724-.16 1.061-.291v2.837c0 .803-.692 1.48-1.514 1.48zm-39.016-6.99a1.71 1.71 0 01-1.47-1.694v-4.32c3.718.497 10.331 1.077 21.001 1.077 10.668 0 17.283-.58 21-1.075v4.32c0 .852-.633 1.58-1.467 1.692-3.37.462-9.493 1.01-19.533 1.01-10.04 0-16.162-.548-19.531-1.01zm4.53 4v1.51c0 .803-.692 1.48-1.514 1.48h-3A1.483 1.483 0 013 38.885v-2.837c.34.132.69.24 1.06.291 1.677.222 3.358.398 5.044.526a1.47 1.47 0 00-.104.51zm2.029-31.22c.955-2.857 3.917-3.165 5.148-3.165h15.65c1.227 0 4.19.308 5.18 3.256l2.819 6.894c-.502-.166-1.157-.434-1.948-.755C34.729 11.109 29.46 8.97 24 8.97c-5.458 0-10.729 2.137-13.877 3.415-.819.333-1.498.61-2.005.775-.015.006-.032.008-.048.012l2.958-7.017zm28.081 15.817c1.969-.14 3.933-.336 5.89-.59v3.003c-.068 0-.133-.021-.201-.012-2.214.304-5.546.641-10.281.855.182-2.891 4.403-3.243 4.592-3.256zM16.495 25.34c-.053-4.63-4.85-6.181-7.384-6.35a97.362 97.362 0 01-5.907-.598c-.07-.009-.135.011-.205.011v-.37a1.595 1.595 0 011.595-1.589h1.632c.965 0 1.912-.148 2.818-.44.558-.182 1.31-.484 2.211-.851 3.136-1.271 7.872-3.194 12.743-3.194 4.873 0 9.613 1.923 12.747 3.194.9.367 1.653.669 2.214.852.91.292 1.86.44 2.815.44h1.632c.88 0 1.595.712 1.595 1.588v.372c-.07 0-.135-.024-.205-.013-1.703.232-3.69.434-5.898.596-2.545.17-7.339 1.72-7.395 6.352-2.234.066-4.725.107-7.503.107-2.778 0-5.268-.04-7.505-.109v.002zM2.999 21.38c1.961.256 3.93.452 5.903.59.043.005 4.396.338 4.581 3.257-4.735-.214-8.067-.551-10.28-.855-.07-.01-.134.014-.204.014v-3.005zm44.561-9.86l-2.322 2.318A4.581 4.581 0 0148 18.035v13.648c0 .283-.028.558-.078.828.035.124.078.245.078.38v5.995c0 2.465-2.025 4.47-4.515 4.47h-3A4.483 4.483 0 0136 38.885v-1.51c0-.112.04-.21.063-.316-3.205.186-7.178.316-12.063.316-4.884 0-8.86-.13-12.062-.316.022.105.062.204.062.316v1.51c0 2.465-2.025 4.47-4.515 4.47h-3A4.483 4.483 0 010 38.885v-5.996c0-.135.043-.255.077-.38A4.712 4.712 0 010 31.682V18.035a4.583 4.583 0 012.764-4.196L.44 11.522a1.491 1.491 0 010-2.114 1.502 1.502 0 012.121 0l2.705 2.694 2.957-6.999C9.256 1.994 12.32 0 16.176 0h15.65c3.855 0 6.918 1.996 7.992 5.209l2.85 6.961 2.77-2.762A1.502 1.502 0 0148 10.465a1.491 1.491 0 01-.44 1.056zM28.5 29.901h-.016c-.957 0-3.448.015-4.484.015-1.034 0-3.526-.015-4.483-.015H19.5a1.505 1.505 0 00-.015 3.007c3.01.02 6.021.018 9.032-.006a1.5 1.5 0 10-.016-3.003l-.001.002zM27 22.425A1.498 1.498 0 0025.5 20.93h-3a1.497 1.497 0 00-1.498 1.495c0 .826.672 1.494 1.499 1.494h3a1.499 1.499 0 001.5-1.494z" fill="#000"/></svg>
